src/icons/cfg.svg

<?xml version="1.0" encoding="UTF-8"?>
<svg xmlns="http://www.w3.org/2000/svg" xmlns:xlink="http://www.w3.org/1999/xlink" width="32" height="32" viewBox="0 0 32 32" version="1.1">
<g id="surface1">
<path style="fill-rule:nonzero;fill:rgb(72.941178%,72.941178%,72.941178%);fill-opacity:1;stroke-width:2.5;stroke-linecap:butt;stroke-linejoin:miter;stroke:rgb(72.941178%,72.941178%,72.941178%);stroke-opacity:1;stroke-miterlimit:10;" d="M 19.104004 64.501955 C 14.294434 65.7959 10.705567 70.104982 10.705567 75.402834 C 10.705567 80.603029 14.294434 84.99756 19.104004 86.303713 L 19.104004 94.995119 L 24.694825 94.995119 L 24.694825 86.206057 C 29.504395 84.899904 33.105469 80.603029 33.105469 75.305177 C 33.105469 70.104982 29.504395 65.698244 24.694825 64.404298 L 24.694825 5.004883 L 19.104004 5.004883 Z M 27.502442 75.305177 C 27.502442 78.405763 25.000001 80.895998 21.899415 80.895998 C 18.798829 80.895998 16.296387 78.405763 16.296387 75.305177 C 16.296387 73.81592 16.882325 72.387697 17.932129 71.337892 C 18.981934 70.288088 20.410157 69.70215 21.899415 69.70215 C 23.388672 69.70215 24.816895 70.288088 25.8667 71.337892 C 26.916505 72.387697 27.502442 73.81592 27.502442 75.305177 Z M 38.793946 24.694825 C 38.793946 29.89502 42.39502 34.301759 47.204591 35.595704 L 47.204591 94.995119 L 52.795411 94.995119 L 52.795411 35.498048 C 57.604982 34.204102 61.206056 29.89502 61.206056 24.597169 C 61.206056 19.299317 57.604982 15.002442 52.795411 13.696289 L 52.795411 5.004883 L 47.204591 5.004883 L 47.204591 13.793946 C 42.297364 15.100098 38.793946 19.494629 38.793946 24.694825 Z M 55.603029 24.694825 C 55.603029 27.795411 53.100587 30.297852 50.000001 30.297852 C 48.510743 30.297852 47.082521 29.711915 46.032716 28.66211 C 44.982911 27.612305 44.396974 26.184083 44.396974 24.694825 C 44.396974 21.594239 46.899415 19.104004 50.000001 19.104004 C 53.100587 19.104004 55.603029 21.594239 55.603029 24.694825 Z M 66.894533 58.398439 C 66.894533 63.598634 70.495607 68.005373 75.305177 69.299318 L 75.305177 94.995119 L 80.895998 94.995119 L 80.895998 69.299318 C 85.705568 68.005373 89.294436 63.69629 89.294436 58.398439 C 89.294436 53.100587 85.705568 48.803712 80.895998 47.49756 L 80.895998 5.004883 L 75.305177 5.004883 L 75.305177 47.595216 C 70.495607 48.803712 66.894533 53.198243 66.894533 58.398439 Z M 83.801271 58.398439 C 83.801271 59.887697 83.215334 61.315919 82.165529 62.365724 C 81.115724 63.415529 79.687502 64.001466 78.198244 64.001466 C 76.708986 64.001466 75.280763 63.415529 74.230959 62.365724 C 73.181154 61.315919 72.595216 59.887697 72.595216 58.398439 C 72.595216 55.297853 75.097658 52.795411 78.198244 52.795411 C 81.201174 52.795411 83.801271 55.297853 83.801271 58.398439 Z M 83.801271 58.398439 " transform="matrix(0.32,0,0,0.32,0,0)"/>
</g>
</svg>

<svg role="img" viewBox="0 0 32 32" xmlns="http://www.w3.org/2000/svg"><path d="M19.104 64.502c-4.81 1.294-8.398 5.603-8.398 10.9 0 5.201 3.588 9.596 8.398 10.902v8.691h5.59v-8.789c4.81-1.306 8.411-5.603 8.411-10.9 0-5.201-3.6-9.608-8.41-10.902v-59.4h-5.591Zm8.398 10.803c0 3.1-2.502 5.591-5.603 5.591-3.1 0-5.603-2.49-5.603-5.59a5.596 5.596 0 0 1 5.603-5.604 5.595 5.595 0 0 1 5.603 5.603Zm11.292-50.61c0 5.2 3.601 9.607 8.41 10.9v59.4h5.591V35.498c4.81-1.294 8.411-5.603 8.411-10.9 0-5.299-3.601-9.596-8.41-10.902V5.005h-5.591v8.789c-4.908 1.306-8.411 5.7-8.411 10.9Zm16.809 0c0 3.1-2.502 5.603-5.603 5.603a5.595 5.595 0 0 1-5.603-5.603c0-3.1 2.502-5.591 5.603-5.591 3.1 0 5.603 2.49 5.603 5.59Zm11.292 33.703c0 5.2 3.6 9.607 8.41 10.901v25.696h5.591V69.3c4.81-1.294 8.398-5.603 8.398-10.9 0-5.298-3.588-9.595-8.398-10.901V5.005h-5.59v42.59c-4.81 1.209-8.411 5.603-8.411 10.803Zm16.906 0a5.595 5.595 0 0 1-5.603 5.603 5.595 5.595 0 0 1-5.603-5.603c0-3.1 2.503-5.603 5.603-5.603 3.003 0 5.603 2.503 5.603 5.603Zm0 0" style="fill-rule:nonzero;fill:rgb(72.941178%,72.941178%,72.941178%);fill-opacity:1;stroke-width:2.5;stroke-linecap:butt;stroke-linejoin:miter;stroke:rgb(72.941178%,72.941178%,72.941178%);stroke-opacity:1;stroke-miterlimit:10" transform="scale(.32)"/></svg>
